dist/images/icons/icon-call.svg

<svg width="22" height="22" viewBox="0 0 22 22" fill="none" xmlns="http://www.w3.org/2000/svg">
<path d="M13.353 1.52979C17.054 1.94079 19.978 4.86079 20.393 8.56179" stroke="black" stroke-width="1.5" stroke-linecap="round" stroke-linejoin="round"/>
<path d="M13.353 5.07275C15.124 5.41675 16.508 6.80175 16.853 8.57275" stroke="black" stroke-width="1.5" stroke-linecap="round" stroke-linejoin="round"/>
<path fill-rule="evenodd" clip-rule="evenodd" d="M10.0315 11.5022C14.0205 15.4901 14.9254 10.8765 17.4653 13.4146C19.9138 15.8625 21.3222 16.353 18.2188 19.4545C17.8302 19.7668 15.3613 23.524 6.68447 14.8495C-1.99341 6.17379 1.76157 3.70223 2.07394 3.31373C5.18377 0.203631 5.66682 1.61917 8.11539 4.06711C10.6541 6.60628 6.04254 7.5142 10.0315 11.5022Z" stroke="black" stroke-width="1.5" stroke-linecap="round" stroke-linejoin="round"/>
</svg>

<svg width="22" height="22" fill="none" xmlns="http://www.w3.org/2000/svg"><path d="M13.353 1.53a7.97 7.97 0 017.04 7.032m-7.04-3.489a4.426 4.426 0 013.5 3.5" stroke="#000" stroke-width="1.5" stroke-linecap="round" stroke-linejoin="round"/><path clip-rule="evenodd" d="M10.031 11.502c3.99 3.988 4.894-.626 7.434 1.913 2.449 2.448 3.857 2.938.754 6.04-.389.312-2.858 4.069-11.535-4.605-8.677-8.676-4.922-11.148-4.61-11.536 3.11-3.11 3.593-1.695 6.041.753 2.54 2.54-2.072 3.447 1.916 7.435z" stroke="#000" stroke-width="1.5" stroke-linecap="round" stroke-linejoin="round"/></svg>
